packages/storybook/src/stories/assets/tutorials.svg

<svg width="33" height="32" viewBox="0 0 33 32" fill="none" xmlns="http://www.w3.org/2000/svg">
<g clip-path="url(#clip0_10031_177597)">
<path opacity="0.7" fill-rule="evenodd" clip-rule="evenodd" d="M17 7.87059C17 6.48214 17.9812 5.28722 19.3431 5.01709L29.5249 2.99755C31.3238 2.64076 33 4.01717 33 5.85105V22.1344C33 23.5229 32.0188 24.7178 30.6569 24.9879L20.4751 27.0074C18.6762 27.3642 17 25.9878 17 24.1539L17 7.87059Z" fill="#B7F0EF"/>
<path fill-rule="evenodd" clip-rule="evenodd" d="M1 5.85245C1 4.01857 2.67623 2.64215 4.47507 2.99895L14.6569 5.01848C16.0188 5.28861 17 6.48354 17 7.87198V24.1553C17 25.9892 15.3238 27.3656 13.5249 27.0088L3.34311 24.9893C1.98119 24.7192 1 23.5242 1 22.1358V5.85245Z" fill="#87E6E5"/>
<path fill-rule="evenodd" clip-rule="evenodd" d="M15.543 5.71289C15.543 5.71289 16.8157 5.96289 17.4002 6.57653C17.9847 7.19016 18.4521 9.03107 18.4521 9.03107C18.4521 9.03107 18.4521 25.1106 18.4521 26.9629C18.4521 28.8152 19.3775 31.4174 19.3775 31.4174L17.4002 28.8947L16.2575 31.4174C16.2575 31.4174 15.543 29.0765 15.543 27.122C15.543 25.1674 15.543 5.71289 15.543 5.71289Z" fill="#61C1FD"/>
</g>
<defs>
<clipPath id="clip0_10031_177597">
<rect width="32" height="32" fill="white" transform="translate(0.5)"/>
</clipPath>
</defs>
</svg>

<svg xmlns="http://www.w3.org/2000/svg" width="33" height="32" fill="none">
  <g fill-rule="evenodd" clip-path="url(#a)" clip-rule="evenodd">
    <path fill="#B7F0EF" d="M17 7.87a2.91 2.91 0 0 1 2.343-2.853l10.182-2.02A2.91 2.91 0 0 1 33 5.852v16.283a2.91 2.91 0 0 1-2.343 2.854l-10.182 2.02A2.91 2.91 0 0 1 17 24.153z" opacity=".7"/>
    <path fill="#87E6E5" d="M1 5.852A2.91 2.91 0 0 1 4.475 3l10.182 2.02A2.91 2.91 0 0 1 17 7.871v16.283a2.91 2.91 0 0 1-3.475 2.854l-10.182-2.02A2.91 2.91 0 0 1 1 22.136z"/>
    <path fill="#61C1FD" d="M15.543 5.713s1.273.25 1.857.864c.585.613 1.052 2.454 1.052 2.454v17.932c0 1.852.925 4.454.925 4.454L17.4 28.895l-1.142 2.522s-.715-2.34-.715-4.295z"/>
  </g>
  <defs>
    <clipPath id="a">
      <path fill="#fff" d="M.5 0h32v32H.5z"/>
    </clipPath>
  </defs>
</svg>
